X: 3126
T: COUNT D'ARTOIS
Q:"Reel."
R: Reel.
%R:reel
B: James Kerr "Merry Melodies" v.3 p.15 #126
Z: 2016 John Chambers <jc:trillian.mit.edu>
M: C
L: 1/8
K: C
g |\
e2(dc) AcGE | GcGE AcGE |\
e2(dc) AcGE | FdEc dDD :|\
g |\
ecgc fgaf | ecgc Bddf |
ecgc fgaf | (e/f/g) (df) eccf |\
ecgc fgaf | ecgc Bcde |\
fcec afgc | GAcd ecc |]

%%sep 1 1 500
%%sep 1 1 500

